X:1
T: The Kilty Lads
C:
R:Jig
Q:180
K:Dm
M:6/8
L:1/16
A2|:D4E2F4E2|D4E2F4E2|F4A2c4A2|G4E2C4E2|
D4E2F4G2|A4A2D6|c2A2A2 A2G2A2|F4D2D4A2:|
|:d4d2A4A2|d4d2A4=B2|c4A2G4F2|E4D2C4C2|
d4d2A4A2|d4d2A4=B2|c4A2G4F2|1E4C2G4E2:|2E4C2D4||
